!!!OTL@@DE: Die Nachtigall
!!!COM: Alabieff, A.
!!!OMD: Langsam und mit Ausdruck
!!!ONB: Russisch
!!!OCL: Erk, Ludwig
!!!GCO: Deutscher Liederschatz, Band 1
!!!ONB: Funny rhythm around bar 24 needs to be fixed
**kern	**kern	**kern
*staff3	*staff2	*staff1
*Ipiano	*Ipiano	*Ivox
*>[A,B,B,B]	*>[A,B,B,B]	*>[A,B,B,B]
*>norep[A,B]	*>norep[A,B]	*>norep[A,B]
*>A	*>A	*>A
=1-	=1-	=1-
*clefF4	*clefG2	*clefG2
*k[f#c#]	*k[f#c#]	*k[f#c#]
*b:	*b:	*b:
*M2/4	*M2/4	*M2/4
*MM60	*MM60	*MM60
*^	*^	*
8r	4BB\	4dd/	8r	2r
8F#/ 8B/L	.	.	8d\ 8f#\L	.
8r	4D\	4ff#/	8r	.
8F#/ 8B/J	.	.	8f#\ 8b\J	.
=2	=2	=2	=2	=2
8r	4E\	(8.ff#/L	8r	2r
8B/ 8e/	.	.	8g\ 8b\	.
.	.	16ee/Jk	.	.
4B/ 4c#/	4E\	(12ee/L)	4g\ 4b\	.
.	.	12dd/	.	.
.	.	12cc#/J)	.	.
=3	=3	=3	=3	=3
8r	4F#\	4dd/	8r	2r
8B/	.	.	8f#\ 8b\	.
8r	4F#\	(8.cc#/L	8r	.
8c#/	.	.	8e\ 8f#\	.
.	.	16a#/Jk)	.	.
*	*	*v	*v	*
=4	=4	=4	=4
4.B/	8r	4.d/ 4.f#/ 4.b/	2r
.	8F#\L	.	.
.	8BB\J	.	.
8ryy	8r	8r	.
*v	*v	*	*
=5	=5	=5
*>B	*>B	*>B
4BB/	8r	4dd\
.	8B/ 8d/ 8f#/L	.
4C#/	8r	4cc#\
.	8e/ 8f#/ 8a#/J	.
=6	=6	=6
4D\	8r	4b\
.	8d/ 8f#/ 8b/L	.
4E\	8r	4cc#\
.	8c#/ 8g/ 8cc#/J	.
=7	=7	=7
*^	*	*
4A#/	4.F#\	8r	(4f#/
*	*	*^	*
.	.	8f#/L	4e\	.
8B/	.	8g#/	.	8g#/)
8c#/	8F#\	8a#/J	8e\ 8f#\	8a#/
*v	*v	*	*	*
*	*v	*v	*
=8	=8	=8
4BB\ 4B\	8d/ 8f#/ 8b/	4b\
.	4d/ 4f#/	.
4BB\ 4B\	.	4r
.	8d/ 8gn/	.
=9	=9	=9
4.C#\ 4.An\	8r	4an/
*	*^	*
.	8an/L	4g\	.
.	8b/	.	8b/L
8C#\ 8A\	8a/J	8g\	8a/J
*	*v	*v	*
=10	=10	=10
4.D\ 4.A\	8r	4f#/
*	*^	*
.	8f#/L	4d\	.
.	8b/	.	8b/L
8D\ 8A\	8a/J	8d\ 8f#\	8a/J
=11	=11	=11	=11
4.AA\ 4.A\	(8e/L	4d\	8e/L
.	16f#/L	.	16f#/L
.	16g/JJ	.	16g/J
.	8f#/L)	8c#\L	8f#/J
8AA\ 8G\	8e/J	8c#\J	8e/
=12	=12	=12	=12
*^	*	*	*
8F#/L	2D\	8d/L	8d\	4d/
(8A/	.	(8f#/	4d\	.
8B/	.	8g/	.	4r
8A/J)	.	8f#/J)	8d\	.
*	*	*v	*v	*
=13	=13	=13	=13
4A#/	2F#\	8r	4f#/
*	*	*^	*
.	.	8f#/L	4e\	.
8B/	.	8g#/	.	8g#/L
8c#/	.	8a#/J	8e\	8a#/J
*	*	*v	*v	*
=14	=14	=14	=14
4B/	2BB\	8r	4b\
.	.	8d/ 8f#/ 8b/L	.
8A#/L	.	8e/ 8f#/ 8cc#/	8cc#\L
8B/J	.	8d/ 8f#/ 8dd/J	8dd\J
=15	=15	=15	=15
4B/	2E\	8r	8g#\L
.	.	8e/ 8g#/ 8dd/L	8dd\J
8c#/L	.	8e/ 8g#/ 8cc#/	8cc#\L
8d/J	.	8e/ 8g#/ 8b/J	8b\J
=16	=16	=16	=16
4.c#/	8A\L	8e/ 8a/L	4a/
.	8A\	(8e/ 8cc#/	.
.	8G#\	8e#/ 8b/	4r
8c#/	8F#\J	8f#/) 8a/J	.
=17	=17	=17	=17
*	*	*^	*
4B/	4.C#\	(4g#/	4.e#\	8g#/L
.	.	.	.	16a/L
.	.	.	.	16b/J
8c#/	.	8a/L)	.	8a/J
8B/	8C#\	8g#/J	8e#\	8g#/
=18	=18	=18	=18	=18
4.A/	4.F#\	4.f#/	8r	4.f#/
.	.	.	8d\	.
.	.	.	4c#\	.
8A/	8F#\	8f#/	.	8f#/
*v	*v	*	*	*
=19	=19	=19	=19
4.F#\ 4.A#\	(4f#/	8r	(4f#/
.	.	8c#\	.
.	8g#/L)	&(4en\&)	8g#/)
8F#\ 8c#\	8a#/J	.	8a#/
*	*v	*v	*
=20	=20	=20
4.BB;\ 4.F#;\ 4.B;\	8d/ 8b/	4.b;\
*	*^	*
.	(8ff#/L	4dd\	.
.	8bb;/J)	.	.
8r	8ryy	8r	8r
*	*v	*v	*
=21	=21	=21
4.F#\ 4.A#\	8r	(4cc#\
*	*^	*
.	(8f#/L	4e\	.
.	8dd/)	.	8dd\)
8F#\ 8A#\	8cc#/J	8e\ 8f#\	8cc#\
*	*v	*v	*
=22	=22	=22
2BB\ 2F#\ 2B\	8r	4b\
*	*^	*
.	(8f#/L	4d\	.
.	8b/)	.	4f#/
.	8f#/J	8d\	.
*	*v	*v	*
=23	=23	=23
4.F#\ 4.A#\	8r	(4cc#\
*	*^	*
.	(8f#/L	4e\	.
.	8dd/)	.	8dd\)
8F#\ 8A#\	8cc#/J	8e\ 8f#\	8cc#\
*	*v	*v	*
=24	=24	=24
2BB;\ 2F#;\ 2B;\	8r	4b\
*	*^	*
.	(8f#/L	4d\	.
.	8b/	.	4f#;\
*	*v	*v	*
.	8f#;/ 8b;/ 8dd;/ 8ff#;/J)	.
=25	=25	=25
4E\ 4c#\	8r	(8cc#\L
.	8g/ 8b/L	16dd\L
.	.	16ee\J
4F#\	8r	8dd\J)
.	8e/ 8a#/J	8cc#\
=26	=26	=26
2G\	8r	2b\
*	*^	*
.	(8d/L	4B\	.
.	8g/	.	.
.	8b/J)	8d\	.
*	*v	*v	*
=27	=27	=27
4G\	8r	(4b\
.	8d/ 8g/ 8b/L	.
4G\	8r	8a#/)
.	8d/ 8g/ 8b/J	8b\
=28	=28	=28
4E\	8r	(8dd\
.	8c#/ 8g/ 8cc#/L	4cc#\)
4E\	8r	.
.	8e/ 8g/ 8cc#/J	8cc#\
=29	=29	=29
8F#\	8r	(8f#/
8r	4d;/ 4f#;/ 4b;/	4dd;\)
8FF#;/	.	.
8F#\	8e/ 8f#/ 8a#/	8cc#\
=30	=30	=30
*^	*	*
8r	2BB\	4d/ 4f#/ 4b/	4b\
8F#/ 8B/L	.	.	.
8F#/ 8B/	.	4d/ 4f#/ 4b/ 4dd/	4r
8F#/ 8B/J	.	.	.
*v	*v	*	*
=31	=31	=31
*	*	*k[]
8BB\L	4.f#\ 4.b\ 4.dd\ 4.ff#\	2r
8B\ 8d\	.	.
8B\ 8d\	.	.
8B\ 8d\ 8g\J	(16ee#\LL	.
*clefG2	*	*
.	16gg\JJ)	.
=32	=32	=32
8B/ 8d/ 8f#/L	8ff#\L	2r
8B/ 8d/ 8g/	(16ee#\L	.
.	16gg\JJ)	.
8B/ 8d/ 8f#/	8ff#\L	.
8B/ 8d/ 8g/J	(16ee#\L	.
.	16gg\JJ)	.
=33	=33	=33
8B/ 8d/ 8f#/L	8ff#\	2r
8B/ 8d/ 8f#/	4b\ 4bb\	.
8B/ 8d/ 8f#/	.	.
8B/ 8d/ 8f#/J	8ff#\	.
*clefF4	*	*
=34	=34	=34
8E\ 8G\ 8c#\L	(16ff#\LL	2r
.	16gg\JJ)	.
8E\ 8G\ 8c#\	4ee\	.
8E\ 8G\ 8c#\	.	.
8E\ 8G\ 8c#\J	8ee\	.
=35	=35	=35
8F#\ 8B\ 8d\L	(16ee\LL	2r
.	16ff#\JJ)	.
8F#\ 8B\ 8d\	4dd\	.
8F#\ 8B\ 8d\	.	.
8F#\ 8B\ 8d\J	8dd\	.
=36	=36	=36
8F#\ 8A#\ 8e\L	(16dd\LL	2r
.	16ee\J)	.
8F#\ 8A#\ 8e\	8cc#\J	.
8F#\ 8A#\J	(16e/ 16cc#/LL	.
.	16f#/) 16dd/J	.
8r	8d/ 8b/J	.
=37	=37	=37
8B\	8d/ 8b/	2r
8r	8r	.
8BB\ 8F#\ 8B\	8b\ 8dd\ 8bb\	.
8r;	8r;	.
==	==	==
*-	*-	*-
!!!ENC: Craig Stuart Sapp
!!!END: 2004/05/27/
!!!EFL: 081/651
